outputs/icons/file/folder_round.svg

<svg xmlns="http://www.w3.org/2000/svg" width="1200" height="1200" fill="none"><g clip-path="url(#a)"><path fill="#000" d="M529.5 229.5c-19-19-44.5-29.5-71-29.5H200c-55 0-99.5 45-99.5 100l-.5 600c0 55 45 100 100 100h800c55 0 100-45 100-100V400c0-55-45-100-100-100H600z"/></g><defs><clipPath id="a"><path fill="#fff" d="M0 0h1200v1200H0z"/></clipPath></defs></svg>

<svg width="1200" height="1200" viewBox="0 0 1200 1200" fill="none" xmlns="http://www.w3.org/2000/svg"><g clip-path="url(#clip0_238_2799)"><path d="M529.5 229.5C510.5 210.5 485 200 458.5 200H200C145 200 100.5 245 100.5 300L100 900C100 955 145 1000 200 1000H1000C1055 1000 1100 955 1100 900V400C1100 345 1055 300 1000 300H600L529.5 229.5Z" fill="#1D1E23"/></g><defs><clipPath id="clip0_238_2799"><path width="24" fill="white" d="M0 0H1200V1200H0V0z"/></clipPath></defs></svg>
